;FLAVOR:Marlin
;TIME:12588
;Filament used: 13.1427m
;Layer height: 0.2
;MINX:-53.57
;MINY:-43.058
;MINZ:0.3
;MAXX:47.022
;MAXY:55.564
;MAXZ:24.9
;Generated with Cura_SteamEngine 5.4.0
M140 S60
M105
M190 S60
M104 S200
M105
M109 S200
M82 ;absolute extrusion mode
G21        ;metric values
G90        ;absolute positioning
M107       ;start with the fan off
G28   ;move to endstops
G92 E0                  ;zero the extruded length
G1 F200 E3              ;extrude 3mm of feed stock
G92 E0                  ;zero the extruded length again
G1 F120
;Put printing message on LCD screen
M117 Printing...
G92 E0
G92 E0
G1 F1500 E-6.5
;LAYER_COUNT:124
;LAYER:0
M107
G0 F3600 X-53.226 Y7.16 Z0.3
;TYPE:SKIRT
G1 F1500 E0
G1 F1800 X-53.57 Y8.735 E0.08043
G1 X-53.512 Y46.826 E1.9808
G1 X-53.406 Y47.533 E2.01647
G1 X-52.901 Y49.275 E2.10695
G1 X-51.793 Y51.585 E2.23477
G1 X-49.566 Y53.773 E2.39053
G1 X-47.78 Y54.692 E2.49074
G1 X-46.498 Y55.163 E2.55888
G1 X-44.771 Y55.538 E2.64704
G1 X38.277 Y55.564 E6.79033
G1 X40.411 Y55.078 E6.89952
G1 X41.612 Y54.52 E6.96559
G1 X43.684 Y53.226 E7.08746
G1 X45.165 Y51.575 E7.19811
G1 X46.191 Y49.834 E7.29893
G1 X46.611 Y48.563 E7.36572
G1 X46.996 Y46.764 E7.4575
G1 X47.022 Y8.895 E9.34679
G1 X46.565 Y6.609 E9.4631
G1 X45.433 Y4.307 E9.59108
G1 X45.155 Y3.961 E9.61323
G1 X45.491 Y2.225 E9.70144
G1 X45.529 Y-35.363 E11.57672
G1 X45.089 Y-37.405 E11.68093
G1 X44.092 Y-39.277 E11.78674
G1 X42.879 Y-40.756 E11.88217
G1 X41.585 Y-41.695 E11.96194
G1 X39.719 Y-42.712 E12.06796
G1 X38.193 Y-42.974 E12.14521
G1 X-9.11 Y-43.058 E14.50517
G1 F1500 E8.00517
G0 F3600 X-44.43 Y-35.877
G0 X-45.168 Y-35.371
G0 X-51.778 Y4.845
G1 F1500 E14.50517
G1 F1800 X-52.708 Y6.67 E14.60736
G1 X-53.17 Y8.78 E14.71512
G1 X-53.116 Y46.767 E16.6103
G1 X-53.01 Y47.474 E16.64597
G1 X-52.54 Y49.102 E16.73051
G1 X-51.461 Y51.351 E16.85496
G1 X-49.331 Y53.444 E17.00394
G1 X-47.597 Y54.336 E17.10122
G1 X-46.413 Y54.772 E17.16417
G1 X-44.727 Y55.138 E17.25025
G1 X38.232 Y55.164 E21.38909
G1 X40.281 Y54.697 E21.49393
G1 X41.444 Y54.157 E21.55791
G1 X43.423 Y52.917 E21.67442
G1 X44.84 Y51.338 E21.78026
G1 X45.825 Y49.667 E21.87704
G1 X46.231 Y48.438 E21.94161
G1 X46.596 Y46.723 E22.02909
G1 X46.622 Y8.933 E23.91444
G1 X46.184 Y6.741 E24.02596
G1 X45.074 Y4.484 E24.15144
G1 X44.725 Y4.073 E24.17834
G1 X45.091 Y2.185 E24.27429
G1 X45.129 Y-35.321 E26.14547
G1 X44.71 Y-37.266 E26.24474
G1 X43.758 Y-39.054 E26.3458
G1 X42.603 Y-40.462 E26.43665
G1 X41.35 Y-41.371 E26.51388
G1 X39.587 Y-42.329 E26.61399
G1 X38.125 Y-42.58 E26.68799
G1 X-9.748 Y-42.659 E29.07639
G1 F1500 E22.57639
G0 F3600 X-44.43 Y-35.877
G0 X-45.168 Y-35.371
G0 X-51.313 Y4.102
G1 F1500 E29.07639
G1 F1800 X-51.137 Y4.513 E29.09869
G1 X-51.221 Y4.632 E29.10596
G1 X-52.327 Y6.804 E29.22756
G1 X-52.77 Y8.825 E29.33079
G1 X-52.72 Y46.708 E31.22078
G1 X-52.614 Y47.415 E31.25644
G1 X-52.179 Y48.929 E31.33503
G1 X-51.129 Y51.117 E31.45611
G1 X-49.096 Y53.115 E31.59832
G1 X-47.414 Y53.98 E31.69268
G1 X-46.276 Y54.396 E31.75313
G1 X-44.684 Y54.738 E31.83437
G1 X38.187 Y54.764 E35.96882
G1 X40.149 Y54.317 E36.06921
G1 X41.275 Y53.794 E36.13115
G1 X43.163 Y52.607 E36.24242
G1 X44.515 Y51.101 E36.34339
G1 X45.458 Y49.501 E36.43604
G1 X45.851 Y48.312 E36.49852
G1 X46.196 Y46.682 E36.58164
G1 X46.222 Y8.971 E38.46305
G1 X45.802 Y6.871 E38.5699
G1 X44.715 Y4.66 E38.69281
G1 X44.257 Y4.151 E38.72697
G1 X44.356 Y3.875 E38.7416
G1 X44.691 Y2.145 E38.82952
G1 X44.729 Y-35.279 E40.69661
G1 X44.331 Y-37.127 E40.79092
G1 X43.424 Y-38.831 E40.88723
G1 X42.327 Y-40.168 E40.97351
G1 X41.115 Y-41.047 E41.0482
G1 X39.454 Y-41.946 E41.14243
G1 X38.057 Y-42.186 E41.21315
G1 X-10.386 Y-42.26 E43.62998
G1 F1500 E37.12998
G0 F3600 X-44.43 Y-35.877
G0 X-45.168 Y-35.371
G0 X-51.055 Y3.689
G1 F1500 E43.62998
G1 F1800 X-50.674 Y4.577 E43.67819
G1 X-50.865 Y4.813 E43.69334
G1 X-51.946 Y6.936 E43.81219
G1 X-52.37 Y8.87 E43.91097
G1 X-52.324 Y46.649 E45.79578
G1 X-52.218 Y47.356 E45.83144
G1 X-51.795 Y48.818 E45.90737
G1 X-50.798 Y50.882 E46.02173
G1 X-48.861 Y52.786 E46.15724
G1 X-47.231 Y53.624 E46.24868
G1 X-46.14 Y54.02 E46.30658
G1 X-44.643 Y54.338 E46.38293
G1 X38.142 Y54.364 E50.51309
G1 X40.017 Y53.937 E50.60903
G1 X41.106 Y53.431 E50.66894
G1 X42.901 Y52.3 E50.77479
G1 X44.19 Y50.864 E50.87106
G1 X45.092 Y49.334 E50.95967
G1 X45.471 Y48.187 E51.01994
G1 X45.796 Y46.642 E51.0987
G1 X45.822 Y9.009 E52.97622
G1 X45.421 Y7.003 E53.07828
G1 X44.38 Y4.886 E53.19598
G1 X43.8 Y4.24 E53.23929
G1 X43.979 Y3.74 E53.26579
G1 X44.291 Y2.106 E53.34878
G1 X44.329 Y-35.237 E55.21183
G1 X43.952 Y-36.988 E55.30119
G1 X43.09 Y-38.608 E55.39274
G1 X42.051 Y-39.874 E55.47445
G1 X40.88 Y-40.723 E55.54661
G1 X39.321 Y-41.563 E55.63496
G1 X37.989 Y-41.792 E55.70239
G1 X-11.023 Y-41.861 E58.14761
G1 F1500 E51.64761
G0 F3600 X-44.43 Y-35.877
G0 X-45.168 Y-35.371
G0 X-50.78 Y3.248
G1 F1500 E58.14761
G1 F1800 X-50.763 Y3.354 E58.15297
G1 X-50.207 Y4.651 E58.22337
G1 X-50.509 Y4.994 E58.24617
G1 X-51.565 Y7.068 E58.36228
G1 X-51.97 Y8.915 E58.45662
G1 X-51.928 Y46.59 E60.33623
G1 X-51.822 Y47.297 E60.3719
G1 X-51.411 Y48.706 E60.44513
G1 X-50.467 Y50.647 E60.55281
G1 X-48.626 Y52.457 E60.68161
G1 X-47.048 Y53.268 E60.77013
G1 X-46.004 Y53.644 E60.82549
G1 X-44.603 Y53.938 E60.89691
G1 X38.097 Y53.964 E65.02283
G1 X39.887 Y53.556 E65.11442
G1 X40.938 Y53.068 E65.17223
G1 X42.64 Y51.991 E65.27272
G1 X43.865 Y50.627 E65.36418
G1 X44.726 Y49.167 E65.44874
G1 X45.091 Y48.062 E65.5068
G1 X45.396 Y46.598 E65.58141
G1 X45.422 Y9.047 E67.45484
G1 X45.04 Y7.135 E67.55211
G1 X44.045 Y5.112 E67.66459
G1 X43.343 Y4.33 E67.71702
G1 X43.602 Y3.605 E67.75542
G1 X43.891 Y2.068 E67.83345
G1 X43.929 Y-35.195 E69.69251
G1 X43.573 Y-36.849 E69.77692
G1 X42.756 Y-38.385 E69.86371
G1 X41.775 Y-39.58 E69.94085
G1 X40.645 Y-40.399 E70.01048
G1 X39.187 Y-41.18 E70.09299
G1 X37.921 Y-41.398 E70.15708
G1 X-11.661 Y-41.462 E72.63074
G1 F1500 E66.13074
G0 F3600 X-44.43 Y-35.877
G0 X-45.168 Y-35.371
G0 X-50.456 Y2.731
G1 F1500 E72.63074
G1 F1800 X-50.395 Y3.196 E72.65414
G1 X-49.735 Y4.735 E72.73768
G1 X-50.153 Y5.175 E72.76796
G1 X-51.184 Y7.2 E72.88133
G1 X-51.57 Y8.96 E72.97122
G1 X-51.532 Y46.531 E74.84565
G1 X-51.426 Y47.238 E74.88132
G1 X-51.051 Y48.531 E74.94848
G1 X-50.136 Y50.412 E75.05284
G1 X-48.391 Y52.128 E75.17494
G1 X-46.865 Y52.912 E75.26053
G1 X-45.87 Y53.267 E75.31324
G1 X-44.56 Y53.538 E75.37998
G1 X38.052 Y53.564 E79.50151
G1 X39.755 Y53.176 E79.58865
G1 X40.769 Y52.705 E79.64443
G1 X42.379 Y51.683 E79.73957
G1 X43.54 Y50.39 E79.82626
G1 X44.359 Y49.001 E79.90671
G1 X44.711 Y47.936 E79.96267
G1 X44.996 Y46.555 E80.03302
G1 X45.022 Y9.085 E81.90241
G1 X44.659 Y7.267 E81.9949
G1 X43.71 Y5.338 E82.10215
G1 X42.854 Y4.384 E82.1661
G1 X42.993 Y4.136 E82.18028
G1 X43.224 Y3.473 E82.21531
G1 X43.491 Y2.032 E82.28843
G1 X43.529 Y-35.153 E84.14359
G1 X43.194 Y-36.71 E84.22305
G1 X42.422 Y-38.162 E84.30509
G1 X41.499 Y-39.286 E84.37765
G1 X40.456 Y-40.046 E84.44204
G1 X39.053 Y-40.797 E84.52143
G1 X37.853 Y-41.004 E84.58218
G1 X-12.299 Y-41.063 E87.08428
G1 F1500 E80.58428
G0 F3600 X-44.43 Y-35.877
G0 X-45.168 Y-35.371
G0 X-50.123 Y2.197
G1 F1500 E87.08428
G1 F1800 X-50.005 Y3.089 E87.12917
G1 X-49.336 Y4.649 E87.21385
G1 X-49.232 Y4.801 E87.22304
G1 X-49.797 Y5.356 E87.26255
G1 X-50.803 Y7.332 E87.37318
G1 X-51.17 Y9.005 E87.45863
G1 X-51.136 Y46.472 E89.32787
G1 X-51.03 Y47.179 E89.36353
G1 X-50.691 Y48.356 E89.42464
G1 X-49.806 Y50.175 E89.52556
G1 X-48.152 Y51.802 E89.64131
G1 X-46.731 Y52.535 E89.72108
G1 X-45.736 Y52.89 E89.77379
G1 X-44.519 Y53.138 E89.83575
G1 X38.007 Y53.164 E93.95299
G1 X39.623 Y52.796 E94.03568
G1 X40.6 Y52.342 E94.08943
G1 X42.117 Y51.376 E94.17915
G1 X43.215 Y50.153 E94.26115
G1 X43.992 Y48.835 E94.33748
G1 X44.331 Y47.81 E94.39134
G1 X44.596 Y46.514 E94.45734
G1 X44.622 Y9.123 E96.32278
G1 X44.278 Y7.399 E96.41049
G1 X43.375 Y5.564 E96.51252
G1 X42.359 Y4.431 E96.58845
G1 X42.615 Y4.004 E96.61328
G1 X42.846 Y3.341 E96.64831
G1 X43.097 Y1.96 E96.71834
G1 X43.129 Y-35.111 E98.56782
G1 X42.815 Y-36.571 E98.64232
G1 X42.088 Y-37.939 E98.71961
G1 X41.222 Y-38.993 E98.78767
G1 X40.267 Y-39.693 E98.84674
G1 X38.919 Y-40.414 E98.92301
G1 X37.785 Y-40.61 E98.98043
G1 X-12.938 Y-40.664 E101.51101
G1 F1500 E95.01101
G0 F3600 X-44.43 Y-35.877
G0 X-45.168 Y-35.371
G0 X-49.759 Y1.615
G1 F1500 E101.51101
G1 F1800 X-49.756 Y1.916 E101.52602
G1 X-49.615 Y2.982 E101.57967
G1 X-48.968 Y4.491 E101.66158
G1 X-48.693 Y4.832 E101.68344
G1 X-49.471 Y5.596 E101.73784
G1 X-50.422 Y7.464 E101.84242
G1 X-50.77 Y9.05 E101.92342
G1 X-50.74 Y46.413 E103.78747
G1 X-50.634 Y47.12 E103.82314
G1 X-50.307 Y48.244 E103.88154
G1 X-49.477 Y49.937 E103.97561
G1 X-47.915 Y51.474 E104.08494
G1 X-46.548 Y52.179 E104.16167
G1 X-45.603 Y52.513 E104.21168
G1 X-44.479 Y52.738 E104.26887
G1 X37.962 Y52.764 E108.38187
G1 X39.493 Y52.415 E108.46021
G1 X40.432 Y51.979 E108.51186
G1 X41.856 Y51.067 E108.59622
G1 X42.89 Y49.916 E108.67342
G1 X43.625 Y48.669 E108.74563
G1 X43.951 Y47.684 E108.79739
G1 X44.196 Y46.474 E108.85899
G1 X44.222 Y9.161 E110.72054
G1 X43.897 Y7.531 E110.80346
G1 X43.04 Y5.79 E110.90027
G1 X41.861 Y4.474 E110.98842
G1 X42.237 Y3.872 E111.02383
G1 X42.468 Y3.209 E111.05886
G1 X42.697 Y1.96 E111.12221
G1 X42.729 Y-35.069 E112.9696
G1 X42.436 Y-36.432 E113.03915
G1 X41.754 Y-37.716 E113.11169
G1 X40.946 Y-38.699 E113.17517
G1 X40.078 Y-39.34 E113.229
G1 X38.785 Y-40.031 E113.30215
G1 X37.717 Y-40.216 E113.35622
G1 X-13.577 Y-40.265 E115.91529
G1 F1500 E109.41529
G0 F3600 X-44.43 Y-35.877
G0 X-45.168 Y-35.371
G0 X-49.365 Y0.986
G1 F1500 E115.91529
G1 F1800 X-49.359 Y1.863 E115.95905
G1 X-49.225 Y2.875 E116.00998
G1 X-48.6 Y4.333 E116.08912
G1 X-48.143 Y4.852 E116.12362
G1 X-49.145 Y5.836 E116.19368
G1 X-50.041 Y7.596 E116.29221
G1 X-50.37 Y9.095 E116.36878
G1 X-50.344 Y46.354 E118.22764
G1 X-50.238 Y47.061 E118.2633
G1 X-49.923 Y48.131 E118.31895
G1 X-49.148 Y49.7 E118.40626
G1 X-47.678 Y51.146 E118.50913
G1 X-46.365 Y51.823 E118.58283
G1 X-45.471 Y52.135 E118.63007
G1 X-44.442 Y52.338 E118.6824
G1 X37.917 Y52.364 E122.79131
G1 X39.361 Y52.035 E122.86519
G1 X40.263 Y51.616 E122.91481
G1 X41.593 Y50.761 E122.99369
G1 X42.565 Y49.679 E123.06626
G1 X43.258 Y48.503 E123.13436
G1 X43.571 Y47.558 E123.18402
G1 X43.796 Y46.434 E123.24121
G1 X43.822 Y9.199 E125.09888
G1 X43.516 Y7.663 E125.17701
G1 X42.705 Y6.016 E125.2686
G1 X41.635 Y4.821 E125.34863
G1 X41.318 Y4.59 E125.3682
G1 X41.873 Y3.699 E125.42057
G1 X42.09 Y3.077 E125.45343
G1 X42.303 Y1.889 E125.51365
G1 X42.329 Y-35.027 E127.3554
G1 X42.057 Y-36.293 E127.42
G1 X41.42 Y-37.493 E127.48778
G1 X40.67 Y-38.405 E127.54669
G1 X39.84 Y-39.018 E127.59817
G1 X38.653 Y-39.648 E127.66521
G1 X37.649 Y-39.822 E127.71605
G1 X-14.215 Y-39.866 E130.30355
G1 F1500 E123.80355
G0 F3600 X-44.43 Y-35.877
G0 X-45.168 Y-35.371
G0 X-48.97 Y0.352
G1 F1500 E130.30355
G1 F1800 X-48.962 Y1.81 E130.37629
G1 X-48.835 Y2.768 E130.42451
G1 X-48.256 Y4.119 E130.49784
G1 X-47.593 Y4.872 E130.54789
G1 X-48.819 Y6.076 E130.63362
G1 X-49.66 Y7.728 E130.7261
G1 X-49.97 Y9.14 E130.79823
G1 X-49.948 Y46.295 E132.6519
G1 X-49.842 Y47.002 E132.68756
G1 X-49.564 Y47.954 E132.73704
G1 X-48.819 Y49.462 E132.82096
G1 X-47.44 Y50.819 E132.91748
G1 X-46.233 Y51.445 E132.98532
G1 X-45.339 Y51.757 E133.03256
G1 X-44.401 Y51.938 E133.08022
G1 X37.872 Y51.964 E137.18483
G1 X39.229 Y51.655 E137.25427
G1 X40.094 Y51.253 E137.30185
G1 X41.331 Y50.454 E137.37532
G1 X42.24 Y49.442 E137.44319
G1 X42.891 Y48.337 E137.50717
G1 X43.191 Y47.432 E137.55474
G1 X43.396 Y46.396 E137.60743
G1 X43.422 Y9.237 E139.4613
G1 X43.135 Y7.795 E139.53465
G1 X42.37 Y6.242 E139.62102
G1 X41.337 Y5.088 E139.69829
G1 X40.776 Y4.703 E139.73224
G1 X41.509 Y3.527 E139.80137
G1 X41.712 Y2.945 E139.83212
G1 X41.909 Y1.82 E139.8891
G1 X41.929 Y-34.985 E141.72531
G1 X41.677 Y-36.156 E141.78507
G1 X41.087 Y-37.268 E141.84787
G1 X40.394 Y-38.111 E141.90232
G1 X39.602 Y-38.696 E141.95144
G1 X38.522 Y-39.265 E142.01234
G1 X37.581 Y-39.428 E142.05999
G1 X-14.856 Y-39.467 E144.67608
G1 F1500 E138.17608
G0 F3600 X-44.43 Y-35.877
G0 X-45.168 Y-35.371
G0 X-48.573 Y-.284
G1 F1500 E144.67608
G1 F1800 X-48.565 Y1.757 E144.77791
G1 X-48.445 Y2.661 E144.82341
G1 X-47.912 Y3.905 E144.89093
G1 X-47.002 Y4.938 E144.95961
G1 X-47.226 Y5.072 E144.97263
G1 X-48.493 Y6.316 E145.06122
G1 X-49.279 Y7.86 E145.14765
G1 X-49.57 Y9.185 E145.21533
G1 X-49.552 Y46.236 E147.06382
G1 X-49.446 Y46.943 E147.09948
G1 X-49.205 Y47.777 E147.14279
G1 X-48.49 Y49.224 E147.22332
G1 X-47.2 Y50.493 E147.3136
G1 X-46.1 Y51.068 E147.37552
G1 X-45.263 Y51.364 E147.41981
G1 X-44.361 Y51.538 E147.46564
G1 X37.827 Y51.564 E151.56602
G1 X39.099 Y51.274 E151.63111
G1 X39.926 Y50.89 E151.6766
G1 X41.068 Y50.148 E151.74454
G1 X41.915 Y49.205 E151.80778
G1 X42.524 Y48.171 E151.86765
G1 X42.811 Y47.306 E151.91312
G1 X42.996 Y46.355 E151.96145
G1 X43.022 Y9.275 E153.81138
G1 X42.754 Y7.927 E153.87995
G1 X42.035 Y6.468 E153.9611
G1 X41.072 Y5.392 E154.03314
G1 X40.129 Y4.744 E154.09022
G1 X40.476 Y4.428 E154.11364
G1 X41.147 Y3.352 E154.1769
G1 X41.318 Y2.876 E154.20214
G1 X41.515 Y1.751 E154.25912
G1 X41.529 Y-34.943 E156.08979
G1 X41.298 Y-36.018 E156.14465
G1 X40.753 Y-37.045 E156.20265
G1 X40.118 Y-37.817 E156.25252
G1 X39.364 Y-38.374 E156.29929
G1 X38.39 Y-38.882 E156.35409
G1 X37.513 Y-39.034 E156.3985
G1 X-15.495 Y-39.067 E159.04308
G1 F1500 E152.54308
G0 F3600 X-44.43 Y-35.877
G0 X-45.168 Y-35.371
G0 X-48.175 Y-.92
G1 F1500 E159.04308
G1 F1800 X-48.168 Y1.704 E159.17399
G1 X-48.055 Y2.555 E159.21682
G1 X-47.569 Y3.69 E159.27842
G1 X-46.673 Y4.707 E159.34604
G1 X-46.207 Y4.989 E159.37322
G1 X-46.946 Y5.357 E159.4144
G1 X-48.167 Y6.556 E159.49978
G1 X-48.898 Y7.992 E159.58017
G1 X-49.17 Y9.23 E159.64341
G1 X-49.156 Y46.177 E161.4867
G1 X-49.05 Y46.884 E161.52237
G1 X-48.821 Y47.664 E161.56292
G1 X-48.161 Y48.986 E161.63664
G1 X-46.962 Y50.166 E161.72057
G1 X-45.915 Y50.713 E161.7795
G1 X-45.187 Y50.971 E161.81804
G1 X-44.321 Y51.138 E161.86204
G1 X37.782 Y51.164 E165.95817
G1 X38.967 Y50.894 E166.01881
G1 X39.757 Y50.527 E166.06227
G1 X40.806 Y49.841 E166.1248
G1 X41.59 Y48.968 E166.18334
G1 X42.157 Y48.005 E166.23909
G1 X42.431 Y47.18 E166.28246
G1 X42.596 Y46.316 E166.32635
G1 X42.622 Y9.313 E168.17243
G1 X42.373 Y8.059 E168.23622
G1 X41.7 Y6.694 E168.31214
G1 X40.807 Y5.696 E168.37896
G1 X40.036 Y5.166 E168.42563
G1 X39.388 Y4.843 E168.46176
G1 X40.137 Y4.216 E168.51049
G1 X40.784 Y3.179 E168.57147
G1 X40.941 Y2.741 E168.59468
G1 X41.121 Y1.684 E168.64818
G1 X41.129 Y-34.901 E170.47341
G1 X40.919 Y-35.88 E170.52336
G1 X40.419 Y-36.822 E170.57657
G1 X39.842 Y-37.523 E170.62187
G1 X39.126 Y-38.052 E170.66628
G1 X38.262 Y-38.498 E170.71479
G1 X37.445 Y-38.64 E170.75616
G1 X-16.134 Y-38.667 E173.42923
G1 F1500 E166.92923
G0 F3600 X-44.43 Y-35.877
G0 X-45.168 Y-35.371
G0 X-47.777 Y-1.557
G1 F1500 E173.42923
G1 F1800 X-47.771 Y1.651 E173.58928
G1 X-47.665 Y2.449 E173.62944
G1 X-47.226 Y3.475 E173.68511
G1 X-46.373 Y4.443 E173.74948
G1 X-45.27 Y5.042 E173.8121
G1 X-44.912 Y5.114 E173.83032
G1 X-44.909 Y4.911 E173.84045
G1 X-45.491 Y5.079 E173.87067
G1 X-46.712 Y5.687 E173.93872
G1 X-47.841 Y6.796 E174.01768
G1 X-48.517 Y8.124 E174.09202
G1 X-48.77 Y9.275 E174.15081
G1 X-48.76 Y46.118 E175.98892
G1 X-48.654 Y46.825 E176.02459
G1 X-48.463 Y47.485 E176.05887
G1 X-47.833 Y48.748 E176.12928
G1 X-46.723 Y49.84 E176.20696
G1 X-45.781 Y50.336 E176.26008
G1 X-45.053 Y50.594 E176.29861
G1 X-44.283 Y50.738 E176.33769
G1 X37.737 Y50.764 E180.42969
G1 X38.835 Y50.514 E180.48587
G1 X39.588 Y50.164 E180.5273
G1 X40.543 Y49.535 E180.58435
G1 X41.265 Y48.731 E180.63826
G1 X41.79 Y47.839 E180.6899
G1 X42.051 Y47.054 E180.73117
G1 X42.196 Y46.279 E180.7705
G1 X42.222 Y9.351 E182.61285
G1 X41.992 Y8.191 E182.67185
G1 X41.365 Y6.92 E182.74256
G1 X40.542 Y6 E182.80414
G1 X39.809 Y5.496 E182.84852
G1 X38.813 Y5.006 E182.9039
G1 X38.065 Y4.852 E182.942
G1 X38.081 Y5.06 E182.95241
G1 X38.87 Y4.755 E182.99461
G1 X39.832 Y3.949 E183.05722
